src/banks/mizuho.svg

<svg width="256" height="256" viewBox="0 0 256 256" fill="none" xmlns="http://www.w3.org/2000/svg">
<path d="M0 0H256V256H0V0Z" fill="#183181"/>
<path d="M55.2144 95.4645C53.2818 100.371 51.2189 105.294 49.0933 110.251L46.2175 116.823L43.3079 110.251C41.1143 105.294 39.0114 100.371 37.0394 95.4645H20.9439V96.7504C22.7285 96.7504 24.1949 98.235 24.1949 100.065C23.9333 103.453 23.6494 106.847 23.3026 110.251L22.2343 120.596C21.7225 125.548 21.1427 130.482 20.4668 135.383H25.61C25.9282 130.482 26.3258 125.548 26.8262 120.596L28.412 104.999C30.6966 109.741 32.8846 114.512 35.0045 119.293L35.5901 120.596C37.7895 125.548 39.8809 130.482 41.8643 135.383H43.4216C45.3651 130.482 47.4228 125.548 49.5594 120.596L50.486 118.472C52.5603 113.69 54.7197 108.92 56.9477 104.184L58.6243 120.596C59.1247 125.548 59.5395 130.482 59.8406 135.383H71.6733C70.9912 130.482 70.4057 125.548 69.9058 120.596L68.8489 110.251C68.3542 105.294 67.928 100.371 67.6383 95.4645H55.2144Z" fill="white"/>
<path d="M108.29 131.417C109.58 128.969 110.973 126.494 112.45 124.018L126.823 100.172V99.1638H95.196V106.5H96.446C96.446 104.733 97.8102 103.288 99.5149 103.18C100.504 103.147 101.487 103.13 102.459 103.13H112.666C111.399 105.526 110.046 107.945 108.586 110.364L94.1387 134.38V135.383H128.25V131.123C125.852 131.315 123.419 131.417 120.998 131.417H108.29Z" fill="white"/>
<path d="M166.76 135.384C166.862 135.379 166.965 135.367 167.061 135.362C166.874 132.914 166.76 130.461 166.76 127.991V119.017H180.883V127.991C180.883 130.461 180.798 132.937 180.611 135.384H191.488C191.289 132.937 191.198 130.461 191.198 127.991V106.565C191.198 104.077 191.289 101.619 191.488 99.1598H177.621V100.304H177.934C179.479 100.304 180.724 101.522 180.832 103.064C180.866 104.225 180.883 105.392 180.883 106.565V115.046H166.76V106.565C166.76 104.077 166.851 101.619 167.05 99.1598H153.188V100.304H153.489C155.03 100.304 156.28 101.511 156.388 103.046C156.428 104.219 156.45 105.386 156.45 106.565V131.645C155.024 131.826 153.557 131.912 152.074 131.912C150.477 131.912 148.903 131.787 147.369 131.538C143.015 130.71 142.322 126.637 142.322 124.099V106.355C142.322 103.947 142.43 101.55 142.612 99.1598H128.75V100.304H129.045C130.591 100.304 131.83 101.511 131.938 103.041C131.978 104.219 132.001 105.386 132.001 106.565V122.382C132.001 125.94 133.132 133.804 142.816 135.231C145.84 135.645 148.931 135.883 152.074 135.883C157.007 135.883 161.907 135.707 166.76 135.384Z" fill="white"/>
<path d="M238.05 117.274C238.05 129.613 227.348 135.879 216.806 135.879C206.263 135.879 195.584 129.613 195.584 117.274C195.584 104.929 206.263 98.6628 216.806 98.6628C227.348 98.6628 238.05 104.929 238.05 117.274ZM227.695 117.274C227.684 110.549 224.864 102.634 216.806 102.634C208.758 102.634 205.928 110.549 205.928 117.274C205.928 123.993 208.758 131.907 216.806 131.907C224.864 131.907 227.684 123.993 227.695 117.274Z" fill="white"/>
<path d="M89.2189 106.563C89.2189 104.076 89.3098 101.617 89.52 99.1581H75.2891V100.445H75.5844C77.4262 100.445 78.864 101.929 78.864 103.775C78.8921 104.693 78.9035 105.623 78.9035 106.563V127.989C78.9035 130.46 78.807 132.936 78.6424 135.383H89.52C89.3098 132.936 89.2189 130.46 89.2189 127.989V106.563Z" fill="white"/>
<path d="M40.2555 155.278C68.911 148.876 98.6914 145.494 129.268 145.494C172.433 145.494 214.085 151.946 253.323 163.946C253.471 163.991 253.556 164.127 253.528 164.291C253.494 164.444 253.329 164.563 253.176 164.529C212.852 157.895 171.551 154.111 129.478 153.38C99.4244 152.853 69.7291 153.912 40.4487 156.439C40.1533 156.467 39.8917 156.28 39.8122 155.992C39.7385 155.674 39.9373 155.351 40.2555 155.278Z" fill="#ED1A3A"/>
</svg>

<svg xmlns="http://www.w3.org/2000/svg" viewBox="0 0 256 256"><path fill="#183181" d="M0 0h256v256H0z"/><path fill="#fff" d="M55.214 95.465c-1.932 4.906-3.995 9.829-6.12 14.786l-2.876 6.572-2.91-6.572a467 467 0 0 1-6.269-14.787H20.944v1.286c1.785 0 3.25 1.485 3.25 3.315a418 418 0 0 1-.891 10.186l-1.069 10.345a438 438 0 0 1-1.767 14.787h5.143c.318-4.901.716-9.835 1.216-14.787l1.586-15.597a498 498 0 0 1 6.593 14.294l.585 1.303c2.2 4.952 4.29 9.886 6.274 14.787h1.558a538 538 0 0 1 6.137-14.787l.927-2.124a516 516 0 0 1 6.462-14.288l1.676 16.412c.5 4.952.915 9.886 1.217 14.787h11.832a395 395 0 0 1-1.767-14.787l-1.057-10.345c-.495-4.957-.921-9.88-1.21-14.787zm53.076 35.952a161 161 0 0 1 4.16-7.399l14.373-23.846v-1.008H95.196v7.336h1.25c0-1.767 1.364-3.212 3.069-3.32q1.485-.05 2.944-.05h10.207a147 147 0 0 1-4.08 7.234L94.139 134.38v1.003h34.111v-4.26a91 91 0 0 1-7.252.294zm58.47 3.967c.102-.005.205-.017.301-.022a97 97 0 0 1-.301-7.371v-8.974h14.123v8.974c0 2.47-.085 4.946-.272 7.393h10.877a91 91 0 0 1-.29-7.393v-21.426c0-2.488.091-4.946.29-7.405h-13.867v1.144h.313c1.545 0 2.79 1.218 2.898 2.76q.051 1.742.051 3.501v8.481H166.76v-8.481c0-2.488.091-4.946.29-7.405h-13.862v1.144h.301c1.541 0 2.791 1.207 2.899 2.742.04 1.173.062 2.34.062 3.519v25.08a35 35 0 0 1-4.376.267c-1.597 0-3.171-.125-4.705-.374-4.354-.828-5.047-4.901-5.047-7.439v-17.744c0-2.408.108-4.805.29-7.195H128.75v1.144h.295c1.546 0 2.785 1.207 2.893 2.737.04 1.178.063 2.345.063 3.524v15.817c0 3.558 1.131 11.422 10.815 12.849a68 68 0 0 0 9.258.652c4.933 0 9.833-.176 14.686-.499m71.29-18.11c0 12.339-10.702 18.605-21.244 18.605s-21.222-6.266-21.222-18.605c0-12.345 10.679-18.611 21.222-18.611 10.542 0 21.244 6.266 21.244 18.611m-10.355 0c-.011-6.725-2.831-14.64-10.889-14.64-8.048 0-10.878 7.915-10.878 14.64 0 6.719 2.83 14.633 10.878 14.633 8.058 0 10.878-7.914 10.889-14.633M89.219 106.563c0-2.487.09-4.946.301-7.405H75.29v1.287h.294c1.842 0 3.28 1.484 3.28 3.33q.041 1.378.04 2.788v21.426c0 2.471-.097 4.947-.262 7.394H89.52a87 87 0 0 1-.301-7.394z"/><path fill="#ED1A3A" d="M40.256 155.278c28.655-6.402 58.435-9.784 89.012-9.784 43.165 0 84.817 6.452 124.055 18.452.148.045.233.181.205.345-.034.153-.199.272-.352.238-40.324-6.634-81.625-10.418-123.698-11.149a860 860 0 0 0-89.03 3.059.6.6 0 0 1-.636-.447.596.596 0 0 1 .444-.714"/></svg>
